assets/images/icons/flow-blue.svg

<svg width="16" height="12" viewBox="0 0 16 12" fill="none" xmlns="http://www.w3.org/2000/svg">
<path d="M1 9.4H0C0 9.95228 0.447715 10.4 1 10.4L1 9.4ZM5.2 9.4L5.90711 8.69289C5.71957 8.50536 5.46522 8.4 5.2 8.4V9.4ZM10.8 9.4V8.4C10.5348 8.4 10.2804 8.50536 10.0929 8.69289L10.8 9.4ZM15 9.4V10.4C15.5523 10.4 16 9.95228 16 9.4H15ZM15 5.2H16C16 4.64772 15.5523 4.2 15 4.2V5.2ZM10.8 5.2L10.0929 5.90711C10.2804 6.09464 10.5348 6.2 10.8 6.2V5.2ZM5.2 5.2V6.2C5.46522 6.2 5.71957 6.09464 5.90711 5.90711L5.2 5.2ZM1 5.2V4.2C0.447715 4.2 0 4.64772 0 5.2H1ZM5.2 0C4.64772 0 4.2 0.447715 4.2 1C4.2 1.55228 4.64772 2 5.2 2V0ZM10.8 2C11.3523 2 11.8 1.55228 11.8 1C11.8 0.447715 11.3523 0 10.8 0V2ZM1 10.4H5.2V8.4H1V10.4ZM5.2 9.4C4.49289 10.1071 4.49307 10.1073 4.49325 10.1075C4.49332 10.1075 4.49351 10.1077 4.49365 10.1079C4.49392 10.1081 4.49422 10.1084 4.49454 10.1087C4.49518 10.1094 4.4959 10.1101 4.49671 10.1109C4.49834 10.1125 4.50031 10.1145 4.50263 10.1168C4.50727 10.1213 4.51329 10.1272 4.52064 10.1343C4.53535 10.1486 4.55544 10.1678 4.58057 10.1912C4.63077 10.2381 4.70145 10.3023 4.78983 10.378C4.96555 10.5286 5.21663 10.7296 5.5203 10.9321C6.09511 11.3153 6.99942 11.8 8 11.8V9.8C7.60058 9.8 7.10489 9.58475 6.6297 9.26795C6.40837 9.12039 6.22195 8.97138 6.09142 8.85949C6.02667 8.804 5.97705 8.75882 5.94521 8.7291C5.92932 8.71427 5.91797 8.7034 5.91149 8.69712C5.90825 8.69399 5.90623 8.69201 5.90549 8.69127C5.90511 8.69091 5.90506 8.69085 5.90533 8.69112C5.90546 8.69125 5.90568 8.69146 5.90597 8.69176C5.90612 8.69191 5.90629 8.69208 5.90648 8.69226C5.90657 8.69236 5.90673 8.69252 5.90678 8.69256C5.90694 8.69273 5.90711 8.69289 5.2 9.4ZM8 11.8C9.00058 11.8 9.90489 11.3153 10.4797 10.9321C10.7834 10.7296 11.0344 10.5286 11.2102 10.378C11.2985 10.3023 11.3692 10.2381 11.4194 10.1912C11.4446 10.1678 11.4647 10.1486 11.4794 10.1343C11.4867 10.1272 11.4927 10.1213 11.4974 10.1168C11.4997 10.1145 11.5017 10.1125 11.5033 10.1109C11.5041 10.1101 11.5048 10.1094 11.5055 10.1087C11.5058 10.1084 11.5061 10.1081 11.5064 10.1079C11.5065 10.1077 11.5067 10.1075 11.5067 10.1075C11.5069 10.1073 11.5071 10.1071 10.8 9.4C10.0929 8.69289 10.0931 8.69273 10.0932 8.69256C10.0933 8.69252 10.0934 8.69236 10.0935 8.69226C10.0937 8.69208 10.0939 8.69191 10.094 8.69176C10.0943 8.69146 10.0945 8.69125 10.0947 8.69112C10.0949 8.69085 10.0949 8.69091 10.0945 8.69127C10.0938 8.69201 10.0918 8.69399 10.0885 8.69712C10.082 8.7034 10.0707 8.71427 10.0548 8.7291C10.023 8.75882 9.97333 8.804 9.90858 8.85949C9.77805 8.97138 9.59163 9.12039 9.3703 9.26795C8.89511 9.58475 8.39942 9.8 8 9.8V11.8ZM10.8 10.4H15V8.4H10.8V10.4ZM16 9.4V5.2H14V9.4H16ZM15 4.2H10.8V6.2H15V4.2ZM10.8 5.2C11.5071 4.49289 11.5069 4.49271 11.5067 4.49253C11.5067 4.49246 11.5065 4.49227 11.5063 4.49214C11.5061 4.49186 11.5058 4.49157 11.5055 4.49125C11.5048 4.49062 11.5041 4.48989 11.5033 4.48909C11.5017 4.48748 11.4997 4.48552 11.4974 4.48324C11.4927 4.47868 11.4867 4.47279 11.4794 4.46567C11.4647 4.45144 11.4446 4.43224 11.4194 4.40879C11.3692 4.36194 11.2985 4.29775 11.2102 4.22199C11.0344 4.07138 10.7834 3.87039 10.4797 3.66795C9.90489 3.28475 9.00058 2.8 8 2.8V4.8C8.39942 4.8 8.89511 5.01525 9.3703 5.33205C9.59163 5.47961 9.77805 5.62862 9.90858 5.74051C9.97333 5.796 10.023 5.84118 10.0548 5.8709C10.0707 5.88573 10.082 5.8966 10.0885 5.90288C10.0918 5.90601 10.0938 5.90799 10.0945 5.90872C10.0949 5.90909 10.0949 5.90915 10.0947 5.90888C10.0945 5.90875 10.0943 5.90853 10.094 5.90824C10.0939 5.90809 10.0937 5.90792 10.0935 5.90773C10.0934 5.90764 10.0933 5.90748 10.0932 5.90744C10.0931 5.90727 10.0929 5.90711 10.8 5.2ZM8 2.8C6.99942 2.8 6.09511 3.28475 5.5203 3.66795C5.21663 3.87039 4.96555 4.07138 4.78983 4.22199C4.70145 4.29775 4.63077 4.36194 4.58057 4.40879C4.55544 4.43224 4.53535 4.45144 4.52064 4.46567C4.51329 4.47279 4.50727 4.47868 4.50263 4.48324C4.50031 4.48552 4.49834 4.48748 4.49671 4.48909C4.4959 4.48989 4.49518 4.49062 4.49454 4.49125C4.49422 4.49157 4.49392 4.49186 4.49365 4.49214C4.49351 4.49227 4.49332 4.49246 4.49325 4.49253C4.49307 4.49271 4.49289 4.49289 5.2 5.2C5.90711 5.90711 5.90694 5.90727 5.90678 5.90744C5.90673 5.90748 5.90657 5.90764 5.90648 5.90773C5.90629 5.90792 5.90612 5.90809 5.90597 5.90824C5.90568 5.90853 5.90546 5.90875 5.90533 5.90888C5.90506 5.90915 5.90511 5.90909 5.90549 5.90872C5.90623 5.90799 5.90825 5.90601 5.91149 5.90288C5.91797 5.8966 5.92932 5.88573 5.94521 5.8709C5.97705 5.84118 6.02667 5.796 6.09142 5.74051C6.22195 5.62862 6.40837 5.47961 6.6297 5.33205C7.10489 5.01525 7.60058 4.8 8 4.8V2.8ZM5.2 4.2H1V6.2H5.2V4.2ZM0 5.2V9.4H2V5.2H0ZM9 3.8V1H7V3.8H9ZM8 0H5.2V2H8V0ZM8 2H10.8V0H8V2Z" fill="#0070C7"/>
</svg>

<svg width="16" height="12" fill="none" xmlns="http://www.w3.org/2000/svg"><path d="M1 9.4H0a1 1 0 001 1v-1zm4.2 0l.707-.707A1 1 0 005.2 8.4v1zm5.6 0v-1a1 1 0 00-.707.293l.707.707zm4.2 0v1a1 1 0 001-1h-1zm0-4.2h1a1 1 0 00-1-1v1zm-4.2 0l-.707.707a1 1 0 00.707.293v-1zm-5.6 0v1a1 1 0 00.707-.293L5.2 5.2zM1 5.2v-1a1 1 0 00-1 1h1zM5.2 0a1 1 0 000 2V0zm5.6 2a1 1 0 100-2v2zM1 10.4h4.2v-2H1v2zm4.2-1a180.947 180.947 0 00-.706.708l.003.003.006.006.018.017a6.549 6.549 0 00.27.244c.175.15.426.352.73.554.574.383 1.478.868 2.479.868v-2c-.4 0-.895-.215-1.37-.532a5.692 5.692 0 01-.725-.577h.001a.026.026 0 000 .002L5.2 9.4zM8 11.8c1 0 1.905-.485 2.48-.868a7.71 7.71 0 001-.798l.017-.017.006-.006.002-.002.001-.001L10.8 9.4l-.707-.707.001-.001c0-.001 0-.001 0 0l-.005.005a5.692 5.692 0 01-.718.57C8.894 9.586 8.398 9.8 8 9.8v2zm2.8-1.4H15v-2h-4.2v2zm5.2-1V5.2h-2v4.2h2zm-1-5.2h-4.2v2H15v-2zm-4.2 1l.707-.707-.002-.002-.002-.002-.006-.006-.018-.017a6.767 6.767 0 00-.27-.244 7.7 7.7 0 00-.73-.554C9.906 3.285 9.002 2.8 8 2.8v2c.4 0 .895.215 1.37.532a5.692 5.692 0 01.725.577h-.001v-.001L10.8 5.2zM8 2.8c-1 0-1.905.485-2.48.868a7.692 7.692 0 00-1.017.815l-.006.006-.002.002-.001.001.706.708.707.707-.001.001c0 .001 0 .001 0 0a.884.884 0 01.04-.037 5.692 5.692 0 01.684-.539C7.105 5.015 7.6 4.8 8 4.8v-2zM5.2 4.2H1v2h4.2v-2zM0 5.2v4.2h2V5.2H0zm9-1.4V1H7v2.8h2zM8 0H5.2v2H8V0zm0 2h2.8V0H8v2z" fill="#0070C7"/></svg>
